!! 00000] TT[WS
!!!OTL: Pianpuo niu
!!!ARE: Asia, China, Shanxi Qinyuan
!! Ethnic Group: Han
!! WII, 184 (2)
!!!SCT: J0680
!!!YEM: Copyright 1995, estate of Helmut Schaffrath.
**kern
*ICvox
*Ivox
*M2/4
*k[b-e-a-]
*E-:
{4cc
8g
8b-
=1
8cc
8gg
8ee-
8ff
=2
8gg
16ff
16ee-
8cc
8ee-
=3
8cc
8b-
4g}
=4
{8g
8b-
8g
8b-
=5
8cc
8gg
8ee-
8cc
=6
2b-
=7
8cc
16b-
16cc
8ee-
8cc
=8
2b-}
=9
{8cc
8ee-
8cc
8b-
=10
8g
8f
4g
=11
8cc
8ee-
8cc
8b-
=12
8cc
8ee-
8cc
8b-
=13
8g
8f
4g}
=14
{16cc
16cc
16cc
16cc
4ee-
=15
16g
16g
16g
16f
4g
=16
8cc
8ee-
16cc
16ee-
16cc
16b-
=17
8g
8f
4g
=18
8cc
8ee-
16cc
16ee-
16cc
16b-
=19
8g
8f
4g}
=20
{8cc
8ee-
16cc
16ee-
16cc
16b-
=21
8cc
8ee-
8cc
8b-
=22
8g
8f
4g}
=23
{8.g
16b-
8.g
16b-
=24
8g
8b-
8g
8b-
=25
8g
8b-
8g
8b-
=26
8.cc
16b-
8g
8f
=27
4.e-
8c}
=28
{8e-
4e-
8g
=29
8f
8d
8c
8B-
=30
2c}
==
!!!AGN: Xiaodiao. Sichun
!!!ONB: ESAC (Essen Associative Code) Database: CHINA
!!!AMT: simple duple
!!!AIN: vox
!!!EED: Helmut Schaffrath
!!!EEV: 1.0
*-
